img/svg/insta.svg

<svg fill="none" height="34" viewBox="0 0 34 34" width="34" xmlns="http://www.w3.org/2000/svg"><path d="m20.9111 10h-8.296c-1.4428 0-2.6151 1.213-2.6151 2.7059v2.8576 5.7306c0 1.4929 1.1723 2.7059 2.6151 2.7059h8.2997c1.4428 0 2.6151-1.213 2.6151-2.7059v-5.7345-2.8576c-.0038-1.489-1.176-2.702-2.6188-2.702zm.7514 1.6134h.3006v.3072 2.0644l-2.2844.0078-.0075-2.3716zm-6.8307 3.9462c.4321-.6221 1.1347-1.0264 1.9313-1.0264.7928 0 1.4991.4082 1.9312 1.0264.2818.4043.4509.9019.4509 1.4346 0 1.3568-1.0708 2.4648-2.3821 2.4648s-2.3821-1.1041-2.3821-2.4648c0-.5327.169-1.0264.4508-1.4346zm7.3755 5.7306c0 .7387-.5823 1.3413-1.2962 1.3413h-8.296c-.7139 0-1.2963-.6026-1.2963-1.3413v-5.7306h2.0176c-.1728.4432-.2742.9292-.2742 1.4346 0 2.111 1.6607 3.8256 3.6971 3.8256 2.0402 0 3.6972-1.7184 3.6972-3.8256 0-.5093-.0977-.9914-.2743-1.4346h2.0176z" fill="#fff"/><circle cx="17" cy="17" r="16.5" stroke="#fff"/></svg>

<svg width="34" height="34" viewBox="0 0 34 34" fill="none" xmlns="http://www.w3.org/2000/svg">
<path d="M20.9111 10H12.6151C11.1723 10 10 11.213 10 12.7059V15.5635V21.2941C10 22.787 11.1723 24 12.6151 24H20.9148C22.3576 24 23.5299 22.787 23.5299 21.2941V15.5596V12.702C23.5261 11.213 22.3539 10 20.9111 10ZM21.6625 11.6134H21.9631V11.9206V13.985L19.6787 13.9928L19.6712 11.6212L21.6625 11.6134ZM14.8318 15.5596C15.2639 14.9375 15.9665 14.5332 16.7631 14.5332C17.5559 14.5332 18.2622 14.9414 18.6943 15.5596C18.9761 15.9639 19.1452 16.4615 19.1452 16.9942C19.1452 18.351 18.0744 19.459 16.7631 19.459C15.4518 19.459 14.381 18.3549 14.381 16.9942C14.381 16.4615 14.55 15.9678 14.8318 15.5596ZM22.2073 21.2902C22.2073 22.0289 21.625 22.6315 20.9111 22.6315H12.6151C11.9012 22.6315 11.3188 22.0289 11.3188 21.2902V15.5596H13.3364C13.1636 16.0028 13.0622 16.4888 13.0622 16.9942C13.0622 19.1052 14.7229 20.8198 16.7593 20.8198C18.7995 20.8198 20.4565 19.1014 20.4565 16.9942C20.4565 16.4849 20.3588 16.0028 20.1822 15.5596H22.1998L22.2073 21.2902Z" fill="white"/>
<circle cx="17" cy="17" r="16.5" stroke="white"/>
</svg>
